img/cab-section__04.svg

<svg width="32" height="39" viewBox="0 0 32 39" fill="none" xmlns="http://www.w3.org/2000/svg">
<path d="M23.8537 1.16815C23.7099 1.01653 23.513 0.925781 23.3087 0.925781H11.0837C9.07023 0.925781 7.38958 2.40175 7.05647 4.32448C5.36103 4.61991 4.02857 5.95962 3.73343 7.64781C1.77301 7.95048 0.266602 9.65375 0.266602 11.6974V34.8154C0.266602 37.0712 2.09076 38.9258 4.34661 38.9258H20.9395C22.9529 38.9258 24.626 37.4571 24.9667 35.5344C26.7001 35.2697 28.0778 33.9071 28.3729 32.1812C30.2957 31.8481 31.7566 30.1677 31.7566 28.1464V9.79754C31.7566 9.60069 31.6884 9.41137 31.5522 9.26758L23.8537 1.16815ZM24.0355 3.59795L29.2436 9.02549H25.8825C24.8832 9.02549 24.0355 8.223 24.0355 7.22366V3.59795ZM20.9395 37.4119H4.34661C2.9234 37.4119 1.78055 36.2386 1.78055 34.8154V11.6977C1.78055 10.5165 2.53752 9.51748 3.67284 9.21481V31.4848C3.67284 33.7407 5.49729 35.5953 7.75285 35.5953H23.3997C23.0741 36.6549 22.0977 37.4119 20.9395 37.4119ZM24.346 34.0813H7.75285C6.33747 34.0813 5.18679 32.908 5.18679 31.4848V8.3668C5.18679 7.20858 5.94376 6.23214 7.00341 5.90656V28.1542C7.00341 30.4098 8.82786 32.2644 11.0837 32.2644H26.8059C26.4806 33.3243 25.5039 34.0813 24.346 34.0813ZM27.6766 30.7505H11.0837C9.66804 30.7505 8.51765 29.5772 8.51765 28.154V5.03623C8.51765 3.62056 9.66051 2.43973 11.0837 2.43973H22.5215V7.22366C22.5215 9.06318 24.043 10.5394 25.8825 10.5394H30.2426V28.154C30.2426 29.5772 29.0998 30.7505 27.6766 30.7505Z" fill="white"/>
<path d="M25.6107 25.9062H13.1509C12.7346 25.9062 12.394 26.2468 12.394 26.6631C12.394 27.0795 12.7346 27.4201 13.1509 27.4201H25.6183C26.0346 27.4201 26.3752 27.0795 26.3752 26.6631C26.3752 26.2468 26.0346 25.9062 25.6107 25.9062Z" fill="white"/>
<path d="M14.2342 23.2566C14.3099 23.2566 14.3855 23.2415 14.4612 23.2189L18.7607 21.8638C18.8743 21.8261 18.9802 21.7656 19.0712 21.6748L25.8234 14.8997C26.1185 14.6046 26.1185 14.1277 25.8234 13.8325L22.9013 10.9105C22.6061 10.6153 22.1292 10.6153 21.8341 10.9105L15.0593 17.6702C14.9758 17.7534 14.9077 17.8595 14.87 17.9807L13.5074 22.2726C13.4242 22.5451 13.4923 22.8327 13.6967 23.0371C13.8405 23.1809 14.0373 23.2566 14.2342 23.2566ZM15.9372 19.6158L17.1183 20.7966L15.3924 21.3417L15.9372 19.6158ZM22.3641 12.5152L24.2187 14.3698L18.5337 20.0698L16.664 18.2001L22.3641 12.5152Z" fill="white"/>
</svg>

<svg width="32" height="39" fill="none" xmlns="http://www.w3.org/2000/svg"><path d="M23.854 1.168a.758.758 0 00-.545-.242H11.084C9.07.926 7.39 2.402 7.056 4.324a4.098 4.098 0 00-3.323 3.324 4.105 4.105 0 00-3.466 4.05v23.117c0 2.256 1.824 4.11 4.08 4.11h16.592c2.014 0 3.687-1.468 4.028-3.39a4.099 4.099 0 003.406-3.354 4.093 4.093 0 003.384-4.035V9.798a.763.763 0 00-.205-.53l-7.698-8.1zm.181 2.43l5.209 5.427h-3.361c-1 0-1.848-.802-1.848-1.801V3.598zM20.94 37.412H4.348c-1.424 0-2.566-1.173-2.566-2.597V11.698c0-1.181.757-2.18 1.892-2.483v22.27c0 2.256 1.824 4.11 4.08 4.11H23.4a2.567 2.567 0 01-2.46 1.817zm3.407-3.33H7.753c-1.416 0-2.566-1.174-2.566-2.597V8.367c0-1.158.757-2.135 1.816-2.46v22.247c0 2.256 1.825 4.11 4.08 4.11h15.723a2.566 2.566 0 01-2.46 1.817zm3.33-3.332H11.085c-1.416 0-2.566-1.173-2.566-2.596V5.036c0-1.415 1.143-2.596 2.566-2.596h11.438v4.784c0 1.84 1.521 3.315 3.36 3.315h4.36v17.615c0 1.423-1.142 2.596-2.565 2.596z" fill="#fff"/><path d="M25.61 25.906H13.15a.76.76 0 00-.756.757c0 .416.34.757.757.757h12.467a.76.76 0 00.757-.757.76.76 0 00-.764-.757zm-11.376-2.649a.796.796 0 00.227-.038l4.3-1.355a.782.782 0 00.31-.19l6.752-6.774a.754.754 0 000-1.068l-2.922-2.921a.754.754 0 00-1.067 0l-6.775 6.76a.76.76 0 00-.189.31l-1.363 4.292a.755.755 0 00.727.984zm1.703-3.641l1.181 1.18-1.726.546.545-1.726zm6.427-7.1l1.855 1.854-5.685 5.7-1.87-1.87 5.7-5.685z" fill="#fff"/></svg>
